X: 230
T: The Expedition
%R: reel
B: "The Compleat Country Dancing-Master" printed by John Walsh, London ca. 1740
S: 6: CCDM2 http://imslp.org/wiki/The_Compleat_Country_Dancing-Master_(Various) V.2 (111)
Z: 2013 John Chambers <jc:trillian.mit.edu>
N: The repeat signs don't make sense. Neither do the multiple, identical endings, the odd note beaming, or the slur/phrase mark.
M: C|
L: 1/8
K: A
% - - - - - - - - - - - - - - - - - - - - - - - - -
E |\
A2 B2 c2 d2 | (ed) (cd) B2 zB | (cB)e B (cB)e A |[1 (G2 F2 E4 |]\
[2 G2 F2 E4) :| |: AE F =G F3 F | (BF) (GA) G2 FG |\
A2 B2 (cd) (ef) | c2 B2 A4 |]
% - - - - - - - - - - - - - - - - - - - - - - - - -
%%begintext align
%% Turn the 2d Wo. with one hand and then all four foot
%% it your Partner do the same Cross over two Cu. foot
%% it at the Bottom Lead thro and cast off
%%endtext
%%sep 1 8 500

%%sep 1 1 500
%%sep 1 1 500
